public/images/sponsors/Wade Institute.svg

<svg fill="none" height="86" viewBox="0 0 172 86" width="172" xmlns="http://www.w3.org/2000/svg" xmlns:xlink="http://www.w3.org/1999/xlink"><clipPath id="a"><path d="m46 2h80v82h-80z"/></clipPath><g clip-path="url(#a)" fill="#d0671c"><path d="m126 84h-48.9544l-30.1598-32.6559v-10.4939h2.9782v9.3315l28.4862 30.8433h44.6718v-44.6953l-28.7014-31.35553h-44.4586v8.25423h-2.9782v-11.22892h48.749l30.3672 33.17502z"/><path d="m53.8019 26.1533h1.2806l2.8743-8.6634h-1.8386l-1.6976 5.1107-1.8027-5.1107h-1.279l-1.8029 5.1107-1.6975-5.1107h-1.8385l2.8743 8.6634h1.2805l1.8177-5.1899z"/><path d="m61.7737 22.6416h-1.8886l.9442-2.1942zm.7074 1.6327.801 1.879h1.9052l-3.7167-8.6634h-1.2706l-3.7166 8.6634h1.9055l.8007-1.879z"/><path d="m68.8736 24.5201h-1.124v-5.3969h1.124c.9258 0 1.6133.2983 2.102.9118.3865.4823.5992 1.1168.5992 1.7865 0 .6695-.2127 1.3044-.5992 1.7872-.4891.613-1.1767.9114-2.102.9114zm2.7952-6.2122c-.7579-.5579-1.7038-.818-2.9772-.818h-2.759v8.6634h2.759c1.2729 0 2.2192-.26 2.9776-.8178 1.0788-.8019 1.7225-2.1153 1.7225-3.514 0-1.3986-.6437-2.7118-1.7229-3.5136z"/><path d="m79.9432 24.5201h-3.5795v-2.1851h2.6086v-1.6328h-2.6086v-1.579h3.4583v-1.6333h-5.2751v8.6634h5.3963z"/><path d="m46.8838 36.3723h1.8168v-8.6625h-1.8168z"/><path d="m56.3476 33.0844-4.5748-5.3433-.0267-.0313h-1.2832v8.6625h1.8166v-5.3742l4.575 5.343.0268.0312h1.2831v-8.6625h-1.8168z"/><path d="m62.9383 32.0082c-.2548-.1152-.5272-.2179-.791-.3171-1.0574-.3992-2.0564-.7757-2.0564-1.9162 0-1.3042 1.1956-1.7901 1.949-1.7901.7302 0 1.3493.2604 1.8405.7729l.0656.0683.2807-.3023-.0608-.0603c-.5811-.5806-1.2962-.8753-2.126-.8753-.9163 0-2.3704.5939-2.3704 2.1868 0 1.3971 1.1897 1.852 2.34 2.2916.2673.1023.5433.2074.7928.3217.9216.4383 1.3326.9966 1.3326 1.8103 0 1.2458-1.0357 1.8984-2.0587 1.8984-1.0484 0-1.8682-.4513-2.436-1.3405l-.0518-.0813-.3404.2553.0493.0706c.7183 1.0322 1.5718 1.4927 2.7669 1.4927 1.4439 0 2.4921-.9657 2.4921-2.2952 0-1.3305-.9242-1.8878-1.618-2.1903"/><path d="m65.1045 28.1063h2.6692v8.266h.4213v-8.266h2.6695v-.3965h-5.76z"/><path d="m72.0205 36.3723h.4212v-8.6625h-.4212z"/><path d="m73.5977 28.1063h2.6693v8.266h.4215v-8.266h2.6692v-.3965h-5.76z"/><path d="m86.7014 33.0348c0 .6827-.1056 1.1628-.353 1.6047-.5038.8991-1.4967 1.4574-2.5914 1.4574-1.0945 0-2.0875-.5583-2.5911-1.4574-.2475-.4419-.3529-.922-.3529-1.6047v-5.3251h-.4214v5.3009c0 .7608.1271 1.3236.4119 1.8259.5812 1.0218 1.7129 1.6572 2.9535 1.6572 1.2409 0 2.3726-.6354 2.9538-1.6572.2848-.5015.4116-1.0651.4116-1.8259v-5.3009h-.421z"/><path d="m88.1572 28.1063h2.6694v8.266h.4209v-8.266h2.6696v-.3965h-5.7599z"/><path d="m95.4946 31.7425h3.2762v-.3965h-3.2762v-3.2397h4.126v-.3965h-4.5474v8.6625h4.6684v-.3966h-4.247z"/></g></svg>

<svg width="172" height="86" viewBox="0 0 172 86" fill="none" xmlns="http://www.w3.org/2000/svg">
<g clip-path="url(#clip0)">
<path d="M126 84H77.0456L46.8858 51.3441V40.8502H49.864V50.1817L78.3502 81.025H123.022V36.3297L94.3206 4.97417H49.862V13.2284H46.8838V1.99948H95.6328L126 35.1745V84Z" fill="#D0671C"/>
<path d="M53.8019 26.1533H55.0825L57.9568 17.4899H56.1182L54.4206 22.6006L52.6179 17.4899H51.3389L49.536 22.6006L47.8385 17.4899H46L48.8743 26.1533H50.1548L51.9725 20.9634L53.8019 26.1533Z" fill="#D0671C"/>
<path d="M61.7737 22.6416H59.8851L60.8293 20.4474L61.7737 22.6416ZM62.4811 24.2743L63.2821 26.1533H65.1873L61.4706 17.4899H60.2L56.4834 26.1533H58.3889L59.1896 24.2743H62.4811Z" fill="#D0671C"/>
<path d="M68.8736 24.5201H67.7496V19.1232H68.8736C69.7994 19.1232 70.4869 19.4215 70.9756 20.035C71.3621 20.5173 71.5748 21.1518 71.5748 21.8215C71.5748 22.491 71.3621 23.1259 70.9756 23.6087C70.4865 24.2217 69.7989 24.5201 68.8736 24.5201ZM71.6688 18.3079C70.9109 17.75 69.965 17.4899 68.6916 17.4899H65.9326V26.1533H68.6916C69.9645 26.1533 70.9108 25.8933 71.6692 25.3355C72.748 24.5336 73.3917 23.2202 73.3917 21.8215C73.3917 20.4229 72.748 19.1097 71.6688 18.3079Z" fill="#D0671C"/>
<path d="M79.9432 24.5201H76.3637V22.335H78.9723V20.7022H76.3637V19.1232H79.822V17.4899H74.5469V26.1533H79.9432V24.5201Z" fill="#D0671C"/>
<path d="M46.8838 36.3723H48.7006V27.7098H46.8838V36.3723" fill="#D0671C"/>
<path d="M56.3476 33.0844L51.7728 27.7411L51.7461 27.7098H50.4629V36.3723H52.2795V30.9981L56.8545 36.3411L56.8813 36.3723H58.1644V27.7098H56.3476V33.0844" fill="#D0671C"/>
<path d="M62.9383 32.0082C62.6835 31.893 62.4111 31.7903 62.1473 31.6911C61.0899 31.2919 60.0909 30.9154 60.0909 29.7749C60.0909 28.4707 61.2865 27.9848 62.0399 27.9848C62.7701 27.9848 63.3892 28.2452 63.8804 28.7577L63.946 28.826L64.2267 28.5237L64.1659 28.4634C63.5848 27.8828 62.8697 27.5881 62.0399 27.5881C61.1236 27.5881 59.6695 28.182 59.6695 29.7749C59.6695 31.172 60.8592 31.6269 62.0095 32.0665C62.2768 32.1688 62.5528 32.2739 62.8023 32.3882C63.7239 32.8265 64.1349 33.3848 64.1349 34.1985C64.1349 35.4443 63.0992 36.0969 62.0762 36.0969C61.0278 36.0969 60.208 35.6456 59.6402 34.7564L59.5884 34.6751L59.248 34.9304L59.2973 35.001C60.0156 36.0332 60.8691 36.4937 62.0642 36.4937C63.5081 36.4937 64.5563 35.528 64.5563 34.1985C64.5563 32.868 63.6321 32.3107 62.9383 32.0082" fill="#D0671C"/>
<path d="M65.1045 28.1063H67.7737V36.3723H68.195V28.1063H70.8645V27.7098H65.1045V28.1063Z" fill="#D0671C"/>
<path d="M72.0205 36.3723H72.4417V27.7098H72.0205V36.3723" fill="#D0671C"/>
<path d="M73.5977 28.1063H76.267V36.3723H76.6885V28.1063H79.3577V27.7098H73.5977V28.1063Z" fill="#D0671C"/>
<path d="M86.7014 33.0348C86.7014 33.7175 86.5958 34.1976 86.3484 34.6395C85.8446 35.5386 84.8517 36.0969 83.757 36.0969C82.6625 36.0969 81.6695 35.5386 81.1659 34.6395C80.9184 34.1976 80.813 33.7175 80.813 33.0348V27.7097H80.3916V33.0106C80.3916 33.7714 80.5187 34.3342 80.8035 34.8365C81.3847 35.8583 82.5164 36.4937 83.757 36.4937C84.9979 36.4937 86.1296 35.8583 86.7108 34.8365C86.9956 34.335 87.1224 33.7714 87.1224 33.0106V27.7097H86.7014V33.0348" fill="#D0671C"/>
<path d="M88.1572 28.1063H90.8266V36.3723H91.2475V28.1063H93.9171V27.7098H88.1572V28.1063Z" fill="#D0671C"/>
<path d="M95.4946 31.7425H98.7708V31.346H95.4946V28.1063H99.6206V27.7098H95.0732V36.3723H99.7416V35.9757H95.4946V31.7425" fill="#D0671C"/>
</g>
<defs>
<clipPath id="clip0">
<rect width="80" height="82" fill="white" transform="translate(46 2)"/>
</clipPath>
</defs>
</svg>
